X: 28367
T: Muiñeira De Chantada
R: jig
M: 6/8
K: Gmajor
|:g2 f|d2 e f2 d|e3 d2 c|A2 B c2 d|B G2 g2 f|
d2 e f2 d|efe d2 c|A2 B c d2|G3-:|
|:G2 g|f2 e ecA|e2 d d2 B|d2 c A F2|e2 d d2 g|
f2 e ecA|e2 d d2 G|d2 c A B2|G3:|
K: G Min
|:G2 D|G3 ABc|d3- d2 d|ded e2 d|d3 A3|
A3 Bcd|e3- edc|ded cBA|B2 A G2 d|
G3 ABc|d3- d2 g|d^cd g f2|f3 e3|
g^fg a2 g|g3 dBG|ded cBA|G3-:|

